packages/blockchain-info-components/src/Images/img/send.svg

<svg fill="none" height="25" viewBox="0 0 25 25" width="25" xmlns="http://www.w3.org/2000/svg"><circle cx="12.6875" cy="12.4999" fill="#d8ebfd" r="12"/><path d="m18.0796 14.5024c0 .4142-.3357.75-.75.75h-.5025c-.4142 0-.75-.3358-.75-.75v-3.8362l-7.00395 7.004c-.29289.2928-.76777.2928-1.06066 0l-.35532-.3554c-.29289-.2929-.29289-.7677 0-1.0606l7.00183-7.00182h-3.8319c-.4142 0-.7499-.33579-.7499-.75v-.5025c0-.41422.3357-.75.75-.75h6.5024c.4143 0 .75.33579.75.75z" fill="#0c6cf2"/></svg>

<svg width="25" height="25" viewBox="0 0 25 25" fill="none" xmlns="http://www.w3.org/2000/svg">
<circle cx="12.6875" cy="12.4999" r="12" fill="#D8EBFD"/>
<path d="M18.0796 14.5024C18.0796 14.9166 17.7439 15.2524 17.3296 15.2524H16.8271C16.4129 15.2524 16.0771 14.9166 16.0771 14.5024V10.6662L9.07315 17.6702C8.78026 17.963 8.30538 17.963 8.01249 17.6702L7.65717 17.3148C7.36428 17.0219 7.36428 16.5471 7.65717 16.2542L14.659 9.25238L10.8271 9.25238C10.4129 9.25238 10.0772 8.91659 10.0772 8.50238V7.99988C10.0772 7.58566 10.4129 7.24988 10.8272 7.24988L17.3296 7.24988C17.7439 7.24988 18.0796 7.58567 18.0796 7.99988V14.5024Z" fill="#0C6CF2"/>
</svg>
